X: 1
T:The Leaking Bagpipe
S:The Cantii Collection, via Phil Rowe
M:6/8
K:G
D3 |"Em"E3 B2A|B2G E2G|"D"F3 A2G|A2F DEF|"Em"E3 B2A|"Em"B2c d2e|"G"B2A "C"G2F|\
